X:3
T:Balquhidder Lasses - 2nd Part
S:Jim Coon, internet
Z:Erich Marschner
N:As played by the Musick (fifes and drums) of the 1st Maryland Regiment, ca. 1975
M:4/4
L:1/8
K:Edor
GF | E2 B,2 E2 EF | GAGE G3 G | F2 F4     (D2 | D)CDE F2 |
GF | E2 B,2 E2 EF | G4 GBAG | FD A,D E2 B,2 | E6 :|
EF | GABA G2 F(G/2A/2) | G2 E4  DE | FGAG F2 (D2 | D2) DEF2 |
BA | GABA G2 F(G/2A/2) | G2 E4  EG | FD A,D E2 B,2 | E6 |
EF | GABA G2 F(G/2A/2) | G2 E4  DE | FGAG F2 (D2 | D2) DEF2 |
GF | E2 B,2 E2 EF | G4 GBAG | FD A,D E2 B,2 | E6 |]
